!!!OTL: JETZT KOMMT DIE FROHE STUNDE
!!!ARE: Europa, Mitteleuropa, Deutschland, Taunus, Wuerges
!!!SCT: E0641A
!!!YEM: Copyright 1995, estate of Helmut Schaffrath.
**kern
*ICvox
*Ivox
*M6/8
*k[b-e-]
*B-:
{8f
=1
4f
8e-
8d
8f
8b-
=2
4b-
8cc
4a}
{8f
=3
8f
8a
8cc
8cc
8dd
8ee-
=4
4ee-
8ff
4dd}
{8b-
=5
4cc
8cc
8cc
8dd
8cc
=6
4b-
8cc
4dd}
{8dd
=7
4ee-
8ee-
8ee-
8ff
8ee-
=8
2dd
8r}
==
!!!AGN: Liebes - Lied
!!!ONB: ESAC (Essen Associative Code) Database: ERK2
!!!AMT: compound duple
!!!AIN: vox
!!!EED: Helmut Schaffrath
!!!EEV: 1.0
*-
